X:1
T:Non mi conosci tu
T:Bartolomeo Mutiis Conte di Cesana
T:Source : Musiche a uno, doi e tre voci---Venetia---Herede di Angelo Gardano---1613 Editor : André Vierendeels (04/11/16). . 
T:Notes : Original clefs : C4, F4 Editorial accidentals above the staff Figures in BC are notated in original print m T in S : 2x "C", notated as dotted quarter + eighth in original print "Tenor overo Canto"
T:Non mi conosci tu
T:©
T:©
T:©
T:©
C:Bartolomeo Mutiis
C:Conte di Cesana
Z:©
%%score 1 2
L:1/8
Q:1/4=120
M:4/4
K:C
V:1 treble-8 nm="Tenor" snm="T"
V:2 bass nm="MusicXML Part"
V:1
 d8- | d2 Bc A3 A | G8 | z4 e4- | e2 cd B3 B | A3 A G2 ^F2 | ^F2 F2 z d c>c | B2 B2 z2 cd | %8
w: Non|_ mi co- co- sce|tu,|non|_ mi co- no- sce|tu, io ben co-|nos- co, io ben co-|nos- co i tuoi|
 e3 d/c/ d4 | c8 | z2 G2 B2 c2 | d4 DE/F/ G/A/B/c/ | d4 _e4- | e2 A2 A4 | G8 :: e3 d d2 dc | %16
w: det- ti bu- giar-|di|e'i tuoi fal-|la- * * * * * * *||* ci sguar-|di,|ar- di pur per a-|
 c3 c f4- | f2 e2 d4 | c8 | e6 E2 | E4 E3 D | D8 | d6 D2 | D4 D3 C | C8 | c8 | ^c4 A4- | %27
w: mant' a te|_ piu gra-|to|ch'io lon-|ta- no da|te,|ch'io lon-|ta- no da|te,|vi-||
 A>_B G>A E2 z2 | A3 G/A/ F4- | F2 E2 E4 | D8 | d8 | d8- | d8- | d4 c4 | B8 | A8 :: z4 G4 | %38
w: * * * * vro,|vi- * * vro|_ be- a-|to,|vi-|vro|_|* be-|a-|to,|ma|
 B3 A d3 B | c2 c2 z4 | ^c8 | A3 G G3 F | F3 E A4- | A2 F2 E4 | D4 z4 | A2 A2 A2 Bc | d2 d2 z4 | %47
w: spe- ro che di|ra- i,|ahi,|non con- no- bi'un|a- ma- tor|_ fi- de-|le,|foss' io sta- ta piu|sag- gia,|
 B2 B2 B2 cd | e2 e2 z2 e2- | e2 dc d4 | c4 c4 | ^c8- | c4 B4 | A8 | G8 :| %55
w: foss' io sta- ta piu|sag- gia e|_ m'en cru- de-|le, e|m'en|_ cru-|de-|le.|
V:2
 G,,8 | D,8 | G,,8 | A,,8 | E,8 | A,,8 | D,8 | G,,4 C,4 | G,,8 | C,8 | G,4 E,4 | D,8 | D,4 C,4 | %13
 D,8 | G,,8 :: C,8 | F,,8 | G,,8 | C,8 | A,,8 | A,,8 | D,8 | G,,8 | G,,8 | C,8 | C,4 B,,4 | A,,8 | %27
 A,,8 | A,,8 | G,,4 A,,4 | D,8 | D,8 | D,4 C,4 | B,,8 | E,8- | E,8 | A,,8 :: G,,8 | G,,8 | C,8 | %40
 A,,8 | A,,8 | A,,8- | A,,8 | D,8 | D,8 | G,,8 | G,,8 | B,,8 | G,,8 | C,8 | A,,8 | D,8- | D,8 | %54
 G,,8 :| %55

